svg/black/mana.svg

<svg xmlns="http://www.w3.org/2000/svg" width="32" height="32"><path d="M16 32C7.163 32 0 24.837 0 16S7.163 0 16 0s16 7.163 16 16-7.163 16-16 16zm0-27C9.939 5 5 9.939 5 16s4.939 11 11 11 11-4.939 11-11S22.061 5 16 5zm8.855 9.889l-.946.165-1.364-1.892h-.44a3.756 3.756 0 0 0-3.322-5.5c-2.068 0-3.762 1.672-3.762 3.74 0 1.716 1.166 3.168 2.739 3.619l-.055.055-.539.275-.88-.319-.869-.506-1.221 1.54-.979-.539-1.881.484-.946-3.102H8.08l-1.683 2.948-.517.011C5.946 10.346 10.467 5.88 16 5.88c5.577 0 10.12 4.543 10.12 10.12v.319l-1.265-1.43zM16 26.12c-4.301 0-7.986-2.695-9.449-6.49.286 0 .594.011.902.011.165.046.335.068.506.066.143 0 .286-.011.407-.044.07-.002.14.002.209.011-.022.066-.022.088-.022.11 0 .484.517.836 1.232.836.693 0 1.199-.33 1.221-.792l.341.033c2.926.319 3.124.847 3.124.869.011.044-.055.275-.649.671-1.243.858-1.672 1.375-1.562 1.914.132.649.979.814 2.266 1.056.363.066.77.143 1.188.242.462.099.957.198 1.43.297.858.176 1.738.352 2.442.561A10.17 10.17 0 0 1 16 26.12zm4.708-1.166c-.825-.407-2.079-.649-3.399-.913a63.833 63.833 0 0 1-1.408-.286 23.798 23.798 0 0 0-1.221-.242c-.594-.11-1.309-.253-1.54-.385.077-.121.319-.407 1.177-.99.308-.209 1.243-.847.99-1.661-.231-.759-1.43-1.221-3.872-1.485-.22-.022-.451-.044-.693-.066-.121-.363-.297-.88-.55-1.628l-.418-1.221-.418 1.221c-.143.407-.253.737-.352 1.023-.11-.352-.308-.924-.649-1.914l-.385-1.243-.418 1.221c-.572 1.672-.737 2.167-.781 2.354h-.506a10.769 10.769 0 0 1-.352-1.991l1.012-.033 1.672-2.926h1.155l1.001 3.289 2.354-.605.539.297-1.144 1.441.693.55 2.442-3.091.286.165 1.32.484.572-.297c-.11.231-.176.484-.176.748s.165.825 1.419 1.034c.399.065.692.41.693.814v1.43a2.526 2.526 0 0 0-.594-.308h.011c-.484-.154-.935-.385-1.078-.858-.11.385-.418.605-.814.759-1.023.275-1.76 1.045-1.76 1.958 0 .33.253 1.111 2.552 1.111 2.31 0 2.552-.781 2.552-1.111v-1.727c.154.055.33.099.539.132.399.065.692.41.693.814v.99c0 .231.165.44.396.462a.446.446 0 0 0 .484-.44v-1.012a.827.827 0 0 1 .693-.814c1.254-.209 1.419-.759 1.419-1.034 0-.737-.484-1.375-1.199-1.738h.011c-.011 0-.022-.011-.044-.011-.121-.066-.264-.11-.396-.154a1.362 1.362 0 0 1-.495-.396c-.055-.781-.638-1.441-1.474-1.76h-.011c-.055-.022-.11-.033-.165-.055-.418-.154-.781-.385-.902-.792-.132.451-.517.682-1.012.836-.033.011-.077.022-.11.044l1.375-1.463.825 1.111.66-.528h.165l1.43 1.969 1.012-.176 1.485 1.683c-.484 3.212-2.497 5.94-5.291 7.414zm-.968-3.421c-.154.11-.726.286-1.672.286s-1.518-.176-1.672-.286c.044-.616.792-1.122 1.672-1.122.88 0 1.628.506 1.672 1.122zm2.563-3.751c.88 0 1.628.506 1.672 1.122-.154.11-.737.286-1.672.286-.935 0-1.518-.176-1.672-.286.044-.616.792-1.122 1.672-1.122zm-.451-1.078c-.154.11-.737.286-1.672.286-.935 0-1.518-.176-1.672-.286.044-.616.792-1.122 1.672-1.122.88 0 1.628.506 1.672 1.122zm-.671-3.729l-.66-.891-2.046 2.189a2.874 2.874 0 0 1 .308-5.731 2.873 2.873 0 0 1 2.871 2.871 2.84 2.84 0 0 1-.473 1.562zM9.499 19.696l.297-.891.297.891c-.194.059-.4.059-.594 0zm-1.815-.935c.066-.198.165-.517.286-.858.121.352.231.671.286.869-.198 0-.385-.011-.572-.011zm4.224-5.907a2.56 2.56 0 0 0 2.552-2.552 2.554 2.554 0 0 0-2.552-2.552 2.554 2.554 0 0 0-2.552 2.552 2.554 2.554 0 0 0 2.552 2.552zm0-4.224c.913 0 1.672.748 1.672 1.672a1.672 1.672 0 1 1-1.672-1.672z"/></svg>

<svg xmlns="http://www.w3.org/2000/svg" width="32" height="32" viewBox="0 0 32 32">
  <path d="M16,32 C7.163444,32 0,24.836556 0,16 C0,7.163444 7.163444,0 16,0 C24.836556,0 32,7.163444 32,16 C32,24.836556 24.836556,32 16,32 Z M16,5 C9.939,5 5,9.939 5,16 C5,22.061 9.939,27 16,27 C22.061,27 27,22.061 27,16 C27,9.939 22.061,5 16,5 Z M24.855,14.889 L23.909,15.054 L22.545,13.162 L22.105,13.162 C22.3870756,12.6221731 22.5342681,12.022081 22.534,11.413 C22.534,9.345 20.851,7.662 18.783,7.662 C16.715,7.662 15.021,9.334 15.021,11.402 C15.021,13.118 16.187,14.57 17.76,15.021 L17.705,15.076 L17.166,15.351 L16.286,15.032 L15.417,14.526 L14.196,16.066 L13.217,15.527 L11.336,16.011 L10.39,12.909 L8.08,12.909 L6.397,15.857 L5.88,15.868 C5.946,10.346 10.467,5.88 16,5.88 C21.577,5.88 26.12,10.423 26.12,16 L26.12,16.319 L24.855,14.889 Z M16,26.12 C11.699,26.12 8.014,23.425 6.551,19.63 C6.837,19.63 7.145,19.641 7.453,19.641 C7.61772577,19.6866755 7.78806948,19.7088943 7.959,19.707 C8.102,19.707 8.245,19.696 8.366,19.663 C8.43584339,19.6614571 8.50570445,19.665134 8.575,19.674 C8.553,19.74 8.553,19.762 8.553,19.784 C8.553,20.268 9.07,20.62 9.785,20.62 C10.478,20.62 10.984,20.29 11.006,19.828 C11.116,19.839 11.237,19.85 11.347,19.861 C14.273,20.18 14.471,20.708 14.471,20.73 C14.482,20.774 14.416,21.005 13.822,21.401 C12.579,22.259 12.15,22.776 12.26,23.315 C12.392,23.964 13.239,24.129 14.526,24.371 C14.889,24.437 15.296,24.514 15.714,24.613 C16.176,24.712 16.671,24.811 17.144,24.91 C18.002,25.086 18.882,25.262 19.586,25.471 C18.4394948,25.9014881 17.2246601,26.1213508 16,26.12 Z M20.708,24.954 C19.883,24.547 18.629,24.305 17.309,24.041 C16.847,23.953 16.363,23.854 15.901,23.755 C15.472,23.656 15.054,23.579 14.68,23.513 C14.086,23.403 13.371,23.26 13.14,23.128 C13.217,23.007 13.459,22.721 14.317,22.138 C14.625,21.929 15.56,21.291 15.307,20.477 C15.076,19.718 13.877,19.256 11.435,18.992 C11.215,18.97 10.984,18.948 10.742,18.926 C10.621,18.563 10.445,18.046 10.192,17.298 L9.774,16.077 L9.356,17.298 C9.213,17.705 9.103,18.035 9.004,18.321 C8.894,17.969 8.696,17.397 8.355,16.407 L7.97,15.164 L7.552,16.385 C6.98,18.057 6.815,18.552 6.771,18.739 L6.265,18.739 C6.08548683,18.087841 5.96763421,17.4212371 5.913,16.748 L6.925,16.715 L8.597,13.789 L9.752,13.789 L10.753,17.078 L13.107,16.473 L13.646,16.77 L12.502,18.211 L13.195,18.761 L15.637,15.67 L15.923,15.835 L17.243,16.319 L17.815,16.022 C17.705,16.253 17.639,16.506 17.639,16.77 C17.639,17.034 17.804,17.595 19.058,17.804 C19.4569007,17.8694903 19.7499954,18.2137603 19.751,18.618 L19.751,20.048 C19.575,19.927 19.377,19.817 19.157,19.74 L19.168,19.74 C18.684,19.586 18.233,19.355 18.09,18.882 C17.98,19.267 17.672,19.487 17.276,19.641 C16.253,19.916 15.516,20.686 15.516,21.599 C15.516,21.929 15.769,22.71 18.068,22.71 C20.378,22.71 20.62,21.929 20.62,21.599 L20.62,19.872 C20.774,19.927 20.95,19.971 21.159,20.004 C21.5579007,20.0694903 21.8509954,20.4137603 21.852,20.818 L21.852,21.808 C21.852,22.039 22.017,22.248 22.248,22.27 C22.512,22.292 22.732,22.083 22.732,21.83 L22.732,20.818 C22.7330046,20.4137603 23.0260993,20.0694903 23.425,20.004 C24.679,19.795 24.844,19.245 24.844,18.97 C24.844,18.233 24.36,17.595 23.645,17.232 L23.656,17.232 C23.645,17.232 23.634,17.221 23.612,17.221 C23.491,17.155 23.348,17.111 23.216,17.067 C23.018,16.968 22.842,16.836 22.721,16.671 C22.666,15.89 22.083,15.23 21.247,14.911 L21.236,14.911 C21.181,14.889 21.126,14.878 21.071,14.856 C20.653,14.702 20.29,14.471 20.169,14.064 C20.037,14.515 19.652,14.746 19.157,14.9 C19.124,14.911 19.08,14.922 19.047,14.944 L20.422,13.481 L21.247,14.592 L21.907,14.064 L22.072,14.064 L23.502,16.033 L24.514,15.857 L25.999,17.54 C25.515,20.752 23.502,23.48 20.708,24.954 Z M19.74,21.533 C19.586,21.643 19.014,21.819 18.068,21.819 C17.122,21.819 16.55,21.643 16.396,21.533 C16.44,20.917 17.188,20.411 18.068,20.411 C18.948,20.411 19.696,20.917 19.74,21.533 Z M22.303,17.782 C23.183,17.782 23.931,18.288 23.975,18.904 C23.821,19.014 23.238,19.19 22.303,19.19 C21.368,19.19 20.785,19.014 20.631,18.904 C20.675,18.288 21.423,17.782 22.303,17.782 Z M21.852,16.704 C21.698,16.814 21.115,16.99 20.18,16.99 C19.245,16.99 18.662,16.814 18.508,16.704 C18.552,16.088 19.3,15.582 20.18,15.582 C21.06,15.582 21.808,16.088 21.852,16.704 Z M21.181,12.975 L20.521,12.084 L18.475,14.273 C17.034,14.119 15.912,12.898 15.912,11.413 C15.912,9.829 17.199,8.542 18.783,8.542 C20.367,8.542 21.654,9.829 21.654,11.413 C21.6525633,11.9687318 21.4881042,12.5118295 21.181,12.975 Z M9.499,19.696 L9.796,18.805 L10.093,19.696 C9.89934617,19.75467 9.69265383,19.75467 9.499,19.696 Z M7.684,18.761 C7.75,18.563 7.849,18.244 7.97,17.903 C8.091,18.255 8.201,18.574 8.256,18.772 C8.058,18.772 7.871,18.761 7.684,18.761 Z M11.908,12.854 C13.305,12.854 14.46,11.71 14.46,10.302 C14.46,8.894 13.316,7.75 11.908,7.75 C10.5,7.75 9.356,8.894 9.356,10.302 C9.356,11.71 10.5,12.854 11.908,12.854 Z M11.908,8.63 C12.821,8.63 13.58,9.378 13.58,10.302 C13.58,11.2254201 12.8314201,11.974 11.908,11.974 C10.9845799,11.974 10.236,11.2254201 10.236,10.302 C10.236,9.3785799 10.9845799,8.63 11.908,8.63 Z"/>
</svg>
